media/icons/menu_icons/launcher-symbolic.svg

<?xml version="1.0" encoding="UTF-8" standalone="no"?>
<svg
   xmlns:dc="http://purl.org/dc/elements/1.1/"
   xmlns:cc="http://creativecommons.org/ns#"
   xmlns:rdf="http://www.w3.org/1999/02/22-rdf-syntax-ns#"
   xmlns:svg="http://www.w3.org/2000/svg"
   xmlns="http://www.w3.org/2000/svg"
   xmlns:sodipodi="http://sodipodi.sourceforge.net/DTD/sodipodi-0.dtd"
   xmlns:inkscape="http://www.inkscape.org/namespaces/inkscape"
   inkscape:version="1.0 (4035a4fb49, 2020-05-01)"
   sodipodi:docname="launcher-symbolic.svg"
   width="64"
   height="64"
   version="1.1"
   id="svg24">
  <sodipodi:namedview
     inkscape:document-rotation="0"
     inkscape:current-layer="svg24"
     inkscape:window-maximized="1"
     inkscape:window-y="40"
     inkscape:window-x="0"
     inkscape:cy="32"
     inkscape:cx="-17.084746"
     inkscape:zoom="3.6875"
     showgrid="false"
     id="namedview951"
     inkscape:window-height="898"
     inkscape:window-width="1920"
     inkscape:pageshadow="2"
     inkscape:pageopacity="0"
     guidetolerance="10"
     gridtolerance="10"
     objecttolerance="10"
     borderopacity="1"
     bordercolor="#666666"
     pagecolor="#ffffff" />
  <metadata
     id="metadata30">
    <rdf:RDF>
      <cc:Work
         rdf:about="">
        <dc:format>image/svg+xml</dc:format>
        <dc:type
           rdf:resource="http://purl.org/dc/dcmitype/StillImage" />
        <dc:title />
      </cc:Work>
    </rdf:RDF>
  </metadata>
  <defs
     id="defs28" />
  <g
     id="g3584"
     transform="matrix(1.425,0,0,1.425,-2.2,-2.2)">
    <path
       d="M 24,4 C 12.92,4 4,12.92 4,24 4,35.08 12.92,44 24,44 35.08,44 44,35.08 44,24 44,12.92 35.08,4 24,4 Z m 12,9.001953 c 0,0 0.0984,3.596447 -1.599609,7.193359 -0.598653,1.099363 -1.399018,2.299409 -2.398438,3.298829 -1.60307,1.551099 -4.574499,4.010886 -6.996094,5.96875 v 4.52539 l -2.998047,1.998047 -0.941406,-3.484375 c -0.08995,0 -0.22817,-0.02016 -0.414062,-0.07813 l -1.242188,0.564453 c 0,0 -0.500537,0.201634 -2.099609,-1.398437 -1.49913,-1.599072 -1.298828,-2 -1.298828,-2 l 0.527343,-1.158203 c -0.09395,-0.230866 -0.126724,-0.400555 -0.136718,-0.521485 l -3.390625,-0.917968 2,-2.998047 h 4.390625 c 1.976853,-2.404605 4.487453,-5.380032 6.103515,-6.996094 0.99942,-0.99942 2.197513,-1.799118 3.296875,-2.298828 C 32.399647,12.899263 36,13.001953 36,13.001953 Z m -6.996094,4.996094 c -1.100361,0 -2,0.897685 -2,1.998047 0,1.099362 0.899639,2 2,2 1.098363,0 1.998047,-0.900638 1.998047,-2 0,-1.100362 -0.898685,-1.998047 -1.998047,-1.998047 z M 14.710938,29.990234 c 0.09994,0.199884 0.199839,0.300116 0.300781,0.5 -1.49913,1.897899 -1.298828,4.796875 -1.298828,4.796875 0,0 2.896977,0.200302 4.796875,-1.298828 0.199884,0.100942 0.300116,0.20084 0.5,0.300781 -0.199884,0.199884 -0.400679,0.499335 -0.601563,0.699219 -2.299665,2.298666 -6.394531,1.998047 -6.394531,1.998047 0,0 -0.300619,-4.097864 1.998047,-6.394531 0.199884,-0.200884 0.499334,-0.39968 0.699219,-0.601563 z"
       id="rect2"
       style="fill:#cccccc" />
    <g
       transform="matrix(0.99942,0,0,0.99942,12,13)"
       id="g16"
       style="fill:#ffffff">
      <g
         id="g14" />
    </g>
  </g>
</svg>

<?xml version="1.0" encoding="UTF-8" standalone="no"?>
<svg
   xmlns:dc="http://purl.org/dc/elements/1.1/"
   xmlns:cc="http://creativecommons.org/ns#"
   xmlns:rdf="http://www.w3.org/1999/02/22-rdf-syntax-ns#"
   xmlns:svg="http://www.w3.org/2000/svg"
   xmlns="http://www.w3.org/2000/svg"
   id="svg20"
   version="1"
   height="48"
   width="48">
  <metadata
     id="metadata26">
    <rdf:RDF>
      <cc:Work
         rdf:about="">
        <dc:format>image/svg+xml</dc:format>
        <dc:type
           rdf:resource="http://purl.org/dc/dcmitype/StillImage" />
        <dc:title></dc:title>
      </cc:Work>
    </rdf:RDF>
  </metadata>
  <defs
     id="defs24" />
  <path
     style="fill:#cccccc"
     id="rect2"
     d="M 24 4 C 12.92 4 4 12.92 4 24 C 4 35.08 12.92 44 24 44 C 35.08 44 44 35.08 44 24 C 44 12.92 35.08 4 24 4 z M 36 13.001953 C 36 13.001953 36.098405 16.5984 34.400391 20.195312 C 33.801738 21.294675 33.001373 22.494721 32.001953 23.494141 C 30.398883 25.04524 27.427454 27.505027 25.005859 29.462891 L 25.005859 33.988281 L 22.007812 35.986328 L 21.066406 32.501953 C 20.976458 32.501953 20.838236 32.481794 20.652344 32.423828 L 19.410156 32.988281 C 19.410156 32.988281 18.909619 33.189915 17.310547 31.589844 C 15.811417 29.990772 16.011719 29.589844 16.011719 29.589844 L 16.539062 28.431641 C 16.445117 28.200775 16.412338 28.031086 16.402344 27.910156 L 13.011719 26.992188 L 15.011719 23.994141 L 19.402344 23.994141 C 21.379197 21.589536 23.889797 18.614109 25.505859 16.998047 C 26.505279 15.998627 27.703372 15.198929 28.802734 14.699219 C 32.399647 12.899263 36 13.001953 36 13.001953 z M 29.003906 17.998047 C 27.903545 17.998047 27.003906 18.895732 27.003906 19.996094 C 27.003906 21.095456 27.903545 21.996094 29.003906 21.996094 C 30.102269 21.996094 31.001953 21.095456 31.001953 19.996094 C 31.001953 18.895732 30.103268 17.998047 29.003906 17.998047 z M 14.710938 29.990234 C 14.81088 30.190118 14.910777 30.29035 15.011719 30.490234 C 13.512589 32.388133 13.712891 35.287109 13.712891 35.287109 C 13.712891 35.287109 16.609868 35.487411 18.509766 33.988281 C 18.70965 34.089223 18.809882 34.189121 19.009766 34.289062 C 18.809882 34.488946 18.609087 34.788397 18.408203 34.988281 C 16.108538 37.286947 12.013672 36.986328 12.013672 36.986328 C 12.013672 36.986328 11.713053 32.888464 14.011719 30.591797 C 14.211603 30.390913 14.511053 30.192117 14.710938 29.990234 z " />
  <g
     id="g16"
     transform="matrix(.99942 0 0 .99942 12 13)"
     fill="#fff">
    <g
       id="g14" />
  </g>
</svg>
